X: 1019
T: The Westphalia Waltz
B: jims roots
M:3/4
L:1/8
R: waltz
Q: 1/4=100
K:Gmaj
V:1 
%N:abc'd by Jim Kendrick
|: D EF |"G" G4 A2 | B4 e2 | (d6 | d3) D EF | G4 A2 | B4 c2 | "Am" (A6 | "D" A4) G2 |
"D" F4 G2 | A4 g2 | (f6 | f4) e2 | d3^c de |[1 d2^c2=c2 | "G" (B6 | B3):|[2 d2F2A2 | "G"G6 ||
"G" [g4B] (3ggg | "GM7"[f4B] (2fff | "G6"[e2B]f2g2 | "G"[B6G] | [B2G]A2G2 | [B2G]A2G2 | "Am"[c3E]B cd | "D"[c6A] |
"Am"[A4c4e4] (3eee | "Am/G#"[^G4c4e4] (3eee | "Am/G"[=G2c2e2]f2g2 | "D7"[f4d] e2 | "D"[d3F] ^c de |[1 d2^c2=c2 | "G"([B6G} | [B6G]):|[2 d2F2A2 | "G"[G6B,] |]
% abcbook-tune_id 6298c297bed97d27cd9177ae


% abcbook-boost 0
% abcbook-tablature 
% abcbook-transpose 
% abcbook-lastupdated 1654178456814
% abcbook-soundfonts 
% abcbook-repeats 1


